img/svg/load.svg

<svg xmlns="http://www.w3.org/2000/svg" preserveAspectRatio="xMidYMid" width="17" height="21" viewBox="0 0 17 21"><defs><style>.cls-2 { fill: #ff6600; }</style></defs><path d="M9.805 18.326v.944c.003.521-.133.961-.606.692l-3.285-1.876c-.473-.27-.471-.706.002-.974l3.256-1.838c.474-.269.632.172.633.693v1.072c3.018-.759 5.751-3.895 5.751-7.075 0-2.151-1.02-4.068-2.615-5.319-.885-.654-.1-1.952.898-1.082 1.819 1.563 2.967 3.851 2.967 6.401 0 4.128-3.006 7.571-7.001 8.362zm.962-15.361l-3.217 1.847c-.469.27-.625-.174-.626-.697v-1.077c-2.982.763-5.683 3.914-5.683 7.108 0 2.16 1.009 4.087 2.584 5.344.875.657.099 1.96-.886 1.087-1.798-1.571-2.933-3.869-2.933-6.431 0-4.147 2.971-7.606 6.918-8.401v-.948c-.003-.524.132-.966.599-.695l3.246 1.885c.467.271.466.708-.002.978z" id="path-1" class="cls-2" fill-rule="evenodd"/></svg>

<svg xmlns="http://www.w3.org/2000/svg" xmlns:xlink="http://www.w3.org/1999/xlink" preserveAspectRatio="xMidYMid" width="17" height="21" viewBox="0 0 17 21">
  <defs>
    <style>

      .cls-2 {
        fill: #ff6600;
      }
    </style>
  </defs>
  <path d="M9.805,18.326 C9.805,18.326 9.805,19.270 9.805,19.270 C9.808,19.791 9.672,20.231 9.199,19.962 C9.199,19.962 5.914,18.086 5.914,18.086 C5.441,17.816 5.443,17.380 5.916,17.112 C5.916,17.112 9.172,15.274 9.172,15.274 C9.646,15.005 9.804,15.446 9.805,15.967 C9.805,15.967 9.805,17.039 9.805,17.039 C12.823,16.280 15.556,13.144 15.556,9.964 C15.556,7.813 14.536,5.896 12.941,4.645 C12.056,3.991 12.841,2.693 13.839,3.563 C15.658,5.126 16.806,7.414 16.806,9.964 C16.806,14.092 13.800,17.535 9.805,18.326 ZM10.767,2.965 C10.767,2.965 7.550,4.812 7.550,4.812 C7.081,5.082 6.925,4.638 6.924,4.115 C6.924,4.115 6.924,3.038 6.924,3.038 C3.942,3.801 1.241,6.952 1.241,10.146 C1.241,12.306 2.250,14.233 3.825,15.490 C4.700,16.147 3.924,17.450 2.939,16.577 C1.141,15.006 0.006,12.708 0.006,10.146 C0.006,5.999 2.977,2.540 6.924,1.745 C6.924,1.745 6.924,0.797 6.924,0.797 C6.921,0.273 7.056,-0.169 7.523,0.102 C7.523,0.102 10.769,1.987 10.769,1.987 C11.236,2.258 11.235,2.695 10.767,2.965 Z" id="path-1" class="cls-2" fill-rule="evenodd"/>
</svg>
